!!!COM: Vivaldi, Antonio
!!!OTL: Concerto a violino solo, No. 6
!!!XEN: Violin Concerto No. 6
!!!OTP: Il Piacere
!!!OTA: Pleasure
!!!OPR: Il Cimento dell'armonia e dell'inventione
!!!XEN: The Contest of Harmony and Invention
!!!OPS: Opus 8
!!!ONM: No. 6
!!!OMV: Movement 3.
!!!YEC: Copyright 1996, Center for Computer Assisted Research in the Humanities
!!!YEM: Rights to all derivative electronic formats reserved.
!!!YEM: Refer to licensing agreement for important restrictions.
!!!OMD: Allegro
**kern	**kern	**kern	**kern	**kern	**Bnum
*Icello	*Iviola	*Ivioln	*Ivioln	*Ivioln	*Icemba
*Icemba	*	*	*	*	*
*ICstr	*ICstr	*ICstr	*ICstr	*ICstr	*ICklav
*ICklav	*	*	*	*	*
!cello	!viola 	!violino 2	!violino 1	!violino principale	!continuo
!basso continuo	!	!	!	!	!
*clefF4	*clefC3	*clefG2	*clefG2	*clefG2	*
*k[]	*k[]	*k[]	*k[]	*k[]	*k[]
*C:	*C:	*C:	*C:	*C:	*C:
*M2/4	*M2/4	*M2/4	*M2/4	*M2/4	*M2/4
8r	8r	8cc\	8cc\	8cc\	.
=1	=1	=1	=1	=1	=1
4r	4r	8G/L	8G/L	8G/L	.
.	.	8G/	8G/	8G/	.
8r	8r	8G/	8G/	8G/	.
8c\	8g\	8ee\J	8cc\J	8cc\J	.
=2	=2	=2	=2	=2	=2
8GG/L	8G/L	(4ee\	(4cc\	(4cc\	6 4
8GG/	8G/	.	.	.	.
8GG/	8G/	8dd\L)	8b\L)	8b\L)	5 3
8c\J	8g/J	8ee\J	8cc\J	8cc\J	.
=3	=3	=3	=3	=3	=3
4G\	4g\	8b\L	8dd\L	8dd\L	.
.	.	8G/	8G/	8G/	.
8r	8r	8G/	8G/	8G/	.
8G\	8b\	8dd\J	8ff\J	8ff\J	7
=4	=4	=4	=4	=4	=4
8GG/L	8G/L	(4dd\	(4ff\	(4ff\	7 5
8GG/	8G/	.	.	.	.
8GG/	8G/	8cc\L)	8ee\L)	8ee\L)	6 4
8c\J	8g/J	8cc\J	8cc\J	8cc\J	.
=5	=5	=5	=5	=5	=5
4GG/	4G/	8G/L	8G/L	8G/L	.
.	.	8G/	8G/	8G/	.
8r	8r	8G/	8G/	8G/	.
8c\	8g\	8ee\J	8cc\J	8cc\J	.
=6	=6	=6	=6	=6	=6
8GG/L	8G/L	(4ee\	(4cc\	(4cc\	6 4
8GG/	8G/	.	.	.	.
8GG/	8G/	8dd\L)	8b\L)	8b\L)	5 3
8c\J	8g/J	8ee\J	8cc\J	8cc\J	.
=7	=7	=7	=7	=7	=7
4GG/	4g\	8b\L	8dd\L	8dd\L	.
.	.	8G/	8G/	8G/	.
8r	8r	8G/	8G/	8G/	.
8G\	8b\	8dd\J	8ff\J	8ff\J	7
=8	=8	=8	=8	=8	=8
8GG/L	8G/L	(4dd\	(4ff\	(4ff\	7 5
8GG/	8G/	.	.	.	.
8GG/	8G/	8cc\L)	8ee\L)	8ee\L)	6 4
8c\J	8e/J	8gg\J	8gg\J	8gg\J	.
=9	=9	=9	=9	=9	=9
4E\	4g\	8cc\L	8cc\L	8cc\L	6
.	.	8cc\	8cc\	8cc\	.
8r	8r	8cc\	8cc\	8cc\	.
8E\	8e\	8gg\J	8bb-\J	8bb-\J	6 b5
=10	=10	=10	=10	=10	=10
8FF/L	8c\L	(4gg\	(4bb-\	(4bb-\	5 4
8FF/	8c\	.	.	.	.
8FF/	8c\	8ff\L)	8aa\L)	8aa\L)	3
8F/J	8a\J	8aa\J	8aa\J	8aa\J	.
=11	=11	=11	=11	=11	=11
4FF#/	4a\	8dd\L	8dd\L	8dd\L	6
.	.	8dd\	8dd\	8dd\	.
8r	8r	8dd\	8dd\	8dd\	.
8F#\	8a\	8aa\J	8ccc\J	8ccc\J	.
=12	=12	=12	=12	=12	=12
8GG/L	8d\L	(4aa\	(4ccc\	(4ccc\	5 4
8GG/	8d\	.	.	.	.
8GG/	8d\	8gg\L)	8bb\L)	8bb\L)	3
8c\J	8cc\J	8ee\J	8gg\J	8gg\J	.
=13	=13	=13	=13	=13	=13
8F\L	8cc\L	8ff\L	8aa\L	8aa\L	.
8C\	8cc\	8ee\	8gg\	8gg\	.
8F\	8cc\	8ff\	8aa\	8aa\	.
8C\J	8cc\J	8ee\J	8gg\J	8gg\J	.
=14	=14	=14	=14	=14	=14
4F\	4a\	8dd\L	8ff\L	8ff\L	.
.	.	8cc\	8ee\	8ee\	.
4F#\	4a\	8b\	8dd\	8dd\	6
.	.	8a\J	8cc\J	8cc\J	.
=15	=15	=15	=15	=15	=15
8G/L	8d/L	4.g/	4ccT\	4ccT\	5 4
8GG/J	8B/J	.	.	.	.
!!  Trill sign erroneously placed above next note in source; cf. tr. 2, same spot.
4GG/	4B/	.	8b\L	8b\L	3
.	.	8cc\	8cc\J	8cc\J	.
=16	=16	=16	=16	=16	=16
4r	4r	8G/L	8G/L	8G/L	.
.	.	8G/	8G/	8G/	.
8r	8r	8G/	8G/	8G/	.
8c\	8g\	8cc\J	8ee\J	8ee\J	.
=17	=17	=17	=17	=17	=17
8GG/L	8G/L	(4cc\	(4ee\	(4ee\	6 4
8GG/	8G/	.	.	.	.
8GG/	8G/	8b\L)	8dd\L)	8dd\L)	5 3
8c\J	8g/J	8cc\J	8cc\J	8cc\J	.
=18	=18	=18	=18	=18	=18
4GG/	4G/	8G/L	8G/L	8G/L	.
.	.	8G/	8G/	8G/	.
8r	8r	8G/	8G/	8G/	.
8G\	8b\	8dd\J	8ff\J	8ff\J	7
=19	=19	=19	=19	=19	=19
8GG/L	8G/L	(4dd\	(4ff\	(4ff\	7 5
8GG/	8G/	.	.	.	.
8GG/	8G/	8cc\L)	8ee\L)	8ee\L)	6 4
8c\J	8g/J	8cc\J	8cc\J	8cc\J	.
=20	=20	=20	=20	=20	=20
4GG/	4G/	8G/L	8G/L	8G/L	.
.	.	8G/	8G/	8G/	.
8r	8r	8G/	8G/	8G/	.
8c\	8g\	8ee\J	8gg\J	8gg\J	.
=21	=21	=21	=21	=21	=21
8GG/L	8G/L	(4ee\	(4gg\	(4gg\	8 6
8GG/	8G/	.	.	.	.
8GG/	8G/	8dd\L)	8ff\L)	8ff\L)	7 5
8c\J	8g/J	8cc\J	8ee\J	8ee\J	.
=22	=22	=22	=22	=22	=22
4E\	4g\	8gg\L	8ccc\L	8ccc\L	6
.	.	8ee\	8cc\	8cc\	.
8r	8r	8ff\	8dd\	8dd\	.
8E\	8g\	8ee\J	8cc\J	8cc\J	.
=23	=23	=23	=23	=23	=23
4F\	4c\	4aa\	4aa\	4aa\	.
4BB/	4d\	8gg\L	8gg\L	8gg\L	6
.	.	8ff\J	8ff\J	8ff\J	.
=24	=24	=24	=24	=24	=24
8C\L	8G\L	8ee\L	8ee\L	8ee\L	.
8E\	8g\	16dd\L	16dd\L	16dd\L	.
.	.	16cc\JJ	16cc\JJ	16cc\JJ	.
8F\	8a\	8dd\L	8dd\L	8dd\L	6
8G\J	8d\J	8b\J	8b\J	8b\J	.
=25	=25	=25	=25	=25	=25
8C\L	8e\L	4cc\	4cc\	4cc\	.
8C\	8e\	.	.	.	.
8C\	8e\	8r	8r	8r	.
8c\J	8g\J	8gg\	8gg\	8gg\	.
=26	=26	=26	=26	=26	=26
4E\	4g\	8gg\L	8ccc\L	8ccc\L	6
.	.	8ee\	8cc\	8cc\	.
8r	8r	8ff\	8dd\	8dd\	.
8E\	8g\	8ee\J	8cc\J	8cc\J	.
=27	=27	=27	=27	=27	=27
4F\	4c\	4aa\	4aa\	4aa\	.
4BB/	4d\	8gg\L	8gg\L	8gg\L	6
.	.	8ff\J	8ff\J	8ff\J	.
=28	=28	=28	=28	=28	=28
8C\L	8G\L	8ee\L	8ee\L	8ee\L	.
8E\	8g\	16dd\L	16dd\L	16dd\L	.
.	.	16cc\JJ	16cc\JJ	16cc\JJ	.
8F\	8a\	8dd\L	8dd\L	8dd\L	.
8G\J	8d\J	8b\J	8b\J	8b\J	.
=29	=29	=29	=29	=29	=29
8C/L	4e\	4cc\	4cc\	16cc\LL	.
.	.	.	.	(16cc\J	.
8BB/	.	.	.	[8dd\J)	.
8BB/	4r	4r	4r	16dd\LL]	.
.	.	.	.	(16dd\	.
8C/J	.	.	.	16ee\)	.
.	.	.	.	(16ee\JJ	.
=30	=30	=30	=30	=30	=30
8D\L	2r	2r	2r	16ff\LL)	.
.	.	.	.	(16ff\J	.
8E\	.	.	.	[8gg\J)	.
8E\	.	.	.	16gg\LL]	.
.	.	.	.	(16gg\	.
8F\J	.	.	.	16aa\)	.
.	.	.	.	(16aa\JJ	.
=31	=31	=31	=31	=31	=31
8G\L	2r	2r	2r	16bb\LL)	.
.	.	.	.	(16bb\J	.
8A\J	.	.	.	[8ccc\J)	.
8A\L	.	.	.	8ccc\L]	6
16G\L	.	.	.	16bb\L	.
16F\JJ	.	.	.	16aa\JJ	.
=32	=32	=32	=32	=32	=32
8E/L	2r	2r	2r	16gg\LL	6
.	.	.	.	16ccc\	.
8C/	.	.	.	16bb\	.
.	.	.	.	16aa\JJ	.
8D/	.	.	.	16gg\LL	6
.	.	.	.	16ff\	.
8BB/J	.	.	.	16ee\	.
.	.	.	.	16dd\JJ	.
=33	=33	=33	=33	=33	=33
8C\L	2r	2r	2r	8ee\L	.
8C\	.	.	.	8cc\J	.
8C\	.	.	.	4r	.
8c\J	.	.	.	.	.
=34	=34	=34	=34	=34	=34
4C/	2r	2r	2r	8gg\L	.
.	.	.	.	(16gg\L	.
.	.	.	.	[16ccc\JJ)	.
4C/	.	.	.	16ccc\LL]	6 4
.	.	.	.	(16aa\	.
.	.	.	.	16gg\)	.
.	.	.	.	(16ff\JJ	.
=35	=35	=35	=35	=35	=35
4C/	2r	2r	2r	8gg\L)	.
.	.	.	.	(16gg\L	.
.	.	.	.	[16ccc\JJ)	.
4C/	.	.	.	16ccc\LL]	.
.	.	.	.	(16gg\	.
.	.	.	.	16ff\)	.
.	.	.	.	(16ee\JJ	.
=36	=36	=36	=36	=36	=36
4C/	2r	2r	2r	16ff\LL)	4
.	.	.	.	(16gg\J	.
.	.	.	.	[8ccc\J)	5
4C/	.	.	.	16ccc\LL]	6 4 2
.	.	.	.	(16ff\	.
.	.	.	.	16ee\)	.
.	.	.	.	(16dd\JJ	.
=37	=37	=37	=37	=37	=37
4C/	2r	2r	2r	16ee\LL)	.
.	.	.	.	(16gg\J	.
.	.	.	.	[8ccc\J)	.
4C/	.	.	.	16ccc\LL]	.
.	.	.	.	(16ee\	.
.	.	.	.	16dd\)	.
.	.	.	.	16cc\JJ	.
=38	=38	=38	=38	=38	=38
8GG/L	2r	2r	2r	16b/LL	.
.	.	.	.	16a/J	.
8GG/	.	.	.	8g/J	.
8GG/	.	.	.	4r	.
8G/J	.	.	.	.	.
=39	=39	=39	=39	=39	=39
4GG/	2r	2r	2r	8gg\L	.
.	.	.	.	8G/	.
4GG/	.	.	.	8ff\	7
.	.	.	.	8G/J	.
=40	=40	=40	=40	=40	=40
4GG/	2r	2r	2r	8ee\L	6
.	.	.	.	8G/	.
4GG/	.	.	.	8dd\	5
.	.	.	.	8G/J	.
=41	=41	=41	=41	=41	=41
4GG/	2r	2r	2r	8gg\L	8
.	.	.	.	8G/	.
4GG/	.	.	.	8ff\	7
.	.	.	.	8G/J	.
=42	=42	=42	=42	=42	=42
4GG/	2r	2r	2r	8ee\L	6
.	.	.	.	8G/	.
4GG/	.	.	.	8dd\	5
.	.	.	.	8G/J	.
=43	=43	=43	=43	=43	=43
4E\	2r	2r	2r	(16cc\LL	6
.	.	.	.	16b\	.
.	.	.	.	16cc\)	.
.	.	.	.	16dd\JJ	.
4C/	.	.	.	(16ee\LL	.
.	.	.	.	16dd\	.
.	.	.	.	16ee\)	.
.	.	.	.	16ff\JJ	.
=44	=44	=44	=44	=44	=44
4BB/	2r	2r	2r	(16gg\LL	6
.	.	.	.	16ff#\	.
.	.	.	.	16gg\)	.
.	.	.	.	16aa\JJ	.
8G\L	.	.	.	(16bb\LL	.
.	.	.	.	16aa\	.
8E\J	.	.	.	16bb\)	.
.	.	.	.	16ccc\JJ	.
=45	=45	=45	=45	=45	=45
4D\	2r	2r	2r	8ddd\L	#
.	.	.	.	8d/	.
4D\	.	.	.	8ccc\	7
.	.	.	.	8d/J	.
=46	=46	=46	=46	=46	=46
4D\	2r	2r	2r	8bb\L	6
.	.	.	.	8d/	.
4D\	.	.	.	8aa\	5
.	.	.	.	8d/J	.
=47	=47	=47	=47	=47	=47
4D\	2r	2r	2r	8ddd\L	8
.	.	.	.	8d/	.
4D\	.	.	.	8ccc\	7
.	.	.	.	8d/J	.
=48	=48	=48	=48	=48	=48
4D\	2r	2r	2r	8bb\L	6
.	.	.	.	8d/	.
4D\	.	.	.	8aa\	5
.	.	.	.	8d/J	.
=49	=49	=49	=49	=49	=49
8D\L	2r	2r	2r	4.ccc\	7
8D\	.	.	.	.	.
8D\	.	.	.	.	.
8d\J	.	.	.	16bb\LL	.
.	.	.	.	16aa\JJ	.
=50	=50	=50	=50	=50	=50
8G\L	2r	2r	2r	8bb\L	.
8BB\	.	.	.	8gg\	.
8C\	.	.	.	8aa\	6
8D\J	.	.	.	8ff#\J	#
=51	=51	=51	=51	=51	=51
4GG/	2r	2r	2r	8gg\L	.
.	.	.	.	(16ff#\L	.
.	.	.	.	16ee\JJ)	.
4r	.	.	.	(16dd\LL	.
.	.	.	.	16cc\)	.
.	.	.	.	(16b\	.
.	.	.	.	16a\JJ)	.
=52	=52	=52	=52	=52	=52
8G\L	2r	2r	2r	8b/L	.
8BB\	.	.	.	8g/	.
8C\	.	.	.	8a/	6
8D\J	.	.	.	8f#/J	#
=53	=53	=53	=53	=53	=53
8GG/L	2r	4r	4r	4g/	.
8GG/	.	.	.	.	.
8GG/	.	8r	8r	8r	.
8G/J	.	8gg\	8gg\	8gg\	.
=54	=54	=54	=54	=54	=54
4F#\	4r	8d/L	8d/L	8d/L	6
.	.	8d/	8d/	8d/	.
8r	8r	8d/	8d/	8d/	.
8G\	8d\	8b/J	8gg\J	8gg\J	.
=55	=55	=55	=55	=55	=55
8DD/L	8d\L	(4b\	(4gg\	(4gg\	6 4
8DD/	8d\	.	.	.	.
8DD/	8d\	8a\L)	8ff#\L)	8ff#\L)	5 #
8G\J	8b\J	8gg\J	8gg\J	8gg\J	.
=56	=56	=56	=56	=56	=56
4DD/	4d\	8ff#\L	8aa\L	8aa\L	#
.	.	8d/	8d/	8d/	.
8r	8r	8d/	8d/	8d/	.
8D\	8f#\	8aa\J	8ccc\J	8ccc\J	7 #
=57	=57	=57	=57	=57	=57
8DD/L	8d\L	(4aa\	(4ccc\	(4ccc\	7 5
8DD/	8d\	.	.	.	.
8DD/	8d\	8gg\L)	8bb\L)	8bb\L)	6 4
8G\J	8b\J	8gg\J	8gg\J	8gg\J	.
=58	=58	=58	=58	=58	=58
4DD/	4d\	8d/L	8d/L	8d/L	#
.	.	8d/	8d/	8d/	.
8r	8r	8d/	8d/	8d/	.
8G\	8d\	8gg\J	8bb\J	8bb\J	.
=59	=59	=59	=59	=59	=59
8DD/L	8d\L	(4gg\	(4bb\	(4bb\	6 4
8DD/	8d\	.	.	.	.
8DD/	8d\	8ff#\L)	8aa\L)	8aa\L)	5 #
8G\J	8b\J	8gg\J	8gg\J	8gg\J	.
=60	=60	=60	=60	=60	=60
4DD/	4d\	8d/L	8d/L	8d/L	#
.	.	8d/	8d/	8d/	.
8r	8r	8d/	8d/	8d/	.
8D\	8f#\	8aa\J	8ccc\J	8ccc\J	7 #
=61	=61	=61	=61	=61	=61
8DD/L	8d\L	(4aa\	(4ccc\	(4ccc\	7 5
8DD/	8d\	.	.	.	.
8DD/	8d\	8gg\L)	8bb\L)	8bb\L)	6 4
8G\J	8b\J	8gg\J	8gg\J	8gg\J	.
=62	=62	=62	=62	=62	=62
4DD/	4d\	8d/L	8d/L	8d/L	#
.	.	8d/	8d/	8d/	.
8r	8r	8d/	8d/	8d/	.
8G\	8d\	8bb\J	8ddd\J	8ddd\J	.
=63	=63	=63	=63	=63	=63
8DD/L	8d\L	(4bb\	(4ddd\	(4ddd\	8 6
8DD/	8d\	.	.	.	.
8DD/	8d\	8aa\L)	8ccc\L)	8ccc\L)	7 5
8D/J	8a\J	8aa\J	8ff#\J	8ff#\J	#
=64	=64	=64	=64	=64	=64
4G\	4b\	8gg\L	8gg\L	8gg\L	.
.	.	8g\	8g\	8g\	.
8r	8r	8a\	8a\	8a\	.
*	*strophe	*	*	*	*
*	*^	*	*	*	*
*	*S/S	*S/A	*	*	*	*
8G\	8b\	8a\	8g\J	8g\J	8g\J	.
*	*S/fin	*S/fin	*	*	*	*
*	*v	*v	*	*	*	*
*	*S-	*	*	*	*
=65	=65	=65	=65	=65	=65
4c\	4g\	4ee\	4ee\	4ee\	.
4F#\	4a\	8dd\L	8dd\L	8dd\L	6
.	.	8cc\J	8cc\J	8cc\J	.
=66	=66	=66	=66	=66	=66
8G\L	8d\L	8b/L	8b/L	8b/L	.
8BB\	8d\	16a/L	16a/L	16a/L	6
.	.	16g/JJ	16g/JJ	16g/JJ	.
8C\	8e\	8a/L	8a/L	8a/L	6
8D\J	8d\J	8f#/J	8f#/J	8f#/J	#
=67	=67	=67	=67	=67	=67
8GG/L	8B\L	4g/	4g/	4g/	.
8GG/	8B\	.	.	.	.
8GG/	8B\	8r	8r	8r	.
8G/J	8b\J	8dd\	8dd\	8dd\	.
=68	=68	=68	=68	=68	=68
4GG/	4B/	8gg\L	8gg\L	8gg\L	.
.	.	8g\	8g\	8g\	.
8r	8r	8a\	8a\	8a\	.
8G\	8b\	8g\J	8g\J	8g\J	.
=69	=69	=69	=69	=69	=69
4c\	4g\	4ee\	4ee\	4ee\	.
4F#\	4a\	8dd\L	8dd\L	8dd\L	6
.	.	8cc\J	8cc\J	8cc\J	.
=70	=70	=70	=70	=70	=70
8G\L	8d\L	8b/L	8b/L	8b/L	.
8BB\	8d\	16a/L	16a/L	16a/L	6
.	.	16g/JJ	16g/JJ	16g/JJ	.
8C\	8e\	8a/L	8a/L	8a/L	6
8D\J	8d\J	8f#/J	8f#/J	8f#/J	#
=71	=71	=71	=71	=71	=71
4G\	4B/	4g/	4g/	16g/LL	.
.	.	.	.	16f#/	.
.	.	.	.	16e/	.
.	.	.	.	16d/JJ	.
4G\	4r	4r	4r	16c/LL	.
.	.	.	.	16B/	.
.	.	.	.	16A/	.
.	.	.	.	16G/JJ	.
=72	=72	=72	=72	=72	=72
4F#\	2r	2r	2r	16dd\LL	6
.	.	.	.	16cc\	.
.	.	.	.	16b\	.
.	.	.	.	16a\JJ	.
4F#\	.	.	.	16g/LL	.
.	.	.	.	16f#/	.
.	.	.	.	16e/	.
.	.	.	.	16d/JJ	.
=73	=73	=73	=73	=73	=73
4E\	2r	2r	2r	16gg\LL	.
.	.	.	.	16ff#\	.
.	.	.	.	16ee\	.
.	.	.	.	16dd\JJ	.
4E\	.	.	.	16cc/LL	.
.	.	.	.	16b/	.
.	.	.	.	16a/	.
.	.	.	.	16g/JJ	.
=74	=74	=74	=74	=74	=74
8D\L	2r	2r	2r	4dd\	#
8D\	.	.	.	.	.
8D\	.	.	.	4r	.
8d\J	.	.	.	.	.
=75	=75	=75	=75	=75	=75
4F\	2r	2r	2r	16dd\LL	6
.	.	.	.	16ee\	.
.	.	.	.	16ffn\	.
.	.	.	.	16dd\JJ	.
4D\	.	.	.	16b\LL	6
.	.	.	.	16cc\	.
.	.	.	.	16dd\	.
.	.	.	.	16b\JJ	.
=76	=76	=76	=76	=76	=76
4E\	2r	2r	2r	16g#/LL	#
.	.	.	.	16a/	.
.	.	.	.	16b/	.
.	.	.	.	16g#/JJ	.
*strophe	*	*	*	*	*
*^	*	*	*	*	*
*S/S	*S/A	*	*	*	*	*
4BB/	4C/	.	.	.	16e/LL	6\ 4
*S/fin	*S/fin	*	*	*	*	*
*v	*v	*	*	*	*	*
*S-	*	*	*	*	*
*	*	*	*	*strophe	*
*	*	*	*	*^	*
*	*	*	*	*S/S	*S/A	*
.	.	.	.	16f#/	16f/	.
*	*	*	*	*S/fin	*S/fin	*
*	*	*	*	*v	*v	*
*	*	*	*	*S-	*
.	.	.	.	16g#/	.
.	.	.	.	16e/JJ	.
=77	=77	=77	=77	=77	=77
4A\	2r	2r	2r	16cc\LL	.
.	.	.	.	16dd\	.
.	.	.	.	16ee\	.
.	.	.	.	16cc\JJ	.
4F\	.	.	.	16a/LL	.
.	.	.	.	16b/	.
.	.	.	.	16cc/	.
.	.	.	.	16a/JJ	.
=78	=78	=78	=78	=78	=78
4D\	2r	2r	2r	16f/LL	.
.	.	.	.	16g/	.
.	.	.	.	16a/	.
.	.	.	.	16f/JJ	.
4BB/	.	.	.	16d/LL	.
.	.	.	.	16e/	.
.	.	.	.	16f/	.
.	.	.	.	16d/JJ	.
=79	=79	=79	=79	=79	=79
4B\	2r	2r	2r	16dd\LL	.
.	.	.	.	16ee\	.
.	.	.	.	16ff\	.
.	.	.	.	16dd\JJ	.
4G#\	.	.	.	16b\LL	.
.	.	.	.	16cc\	.
.	.	.	.	16dd\	.
.	.	.	.	16b\JJ	.
=80	=80	=80	=80	=80	=80
4E\	2r	2r	2r	16g#/LL	#
.	.	.	.	16a/	.
.	.	.	.	16b/	.
.	.	.	.	16g#/JJ	.
*strophe	*	*	*	*	*
*^	*	*	*	*	*
*S/S	*S/A	*	*	*	*	*
4BB/	4C/	.	.	.	16e/LL	6\ 4
*S/fin	*S/fin	*	*	*	*	*
*v	*v	*	*	*	*	*
*S-	*	*	*	*	*
.	.	.	.	16f#/	.
.	.	.	.	16g#/	.
.	.	.	.	16e/JJ	.
=81	=81	=81	=81	=81	=81
4c\	2r	2r	2r	16ee\LL	.
.	.	.	.	16ff\	.
.	.	.	.	16gg\	.
.	.	.	.	16ee\JJ	.
4A\	.	.	.	16cc\LL	.
.	.	.	.	16dd\	.
.	.	.	.	16ee\	.
.	.	.	.	16cc\JJ	.
=82	=82	=82	=82	=82	=82
4F\	2r	2r	2r	16a/LL	.
.	.	.	.	16b/	.
.	.	.	.	16cc/	.
.	.	.	.	16a/JJ	.
4D\	.	.	.	16f/LL	.
.	.	.	.	16g/	.
.	.	.	.	16a/	.
.	.	.	.	16f/JJ	.
=83	=83	=83	=83	=83	=83
4d\	2r	2r	2r	16ff\LL	.
.	.	.	.	16gg\	.
.	.	.	.	16aa\	.
.	.	.	.	16ff\JJ	.
4B\	.	.	.	16dd\LL	.
.	.	.	.	16ee\	.
.	.	.	.	16ff\	.
.	.	.	.	16dd\JJ	.
=84	=84	=84	=84	=84	=84
4G#\	2r	2r	2r	16b\LL	.
.	.	.	.	16cc\	.
.	.	.	.	16dd\	.
.	.	.	.	16b\JJ	.
4E\	.	.	.	16g#/LL	#
.	.	.	.	16a/	.
.	.	.	.	16b/	.
.	.	.	.	16g#/JJ	.
=85	=85	=85	=85	=85	=85
8C\L	2r	2r	2r	4e/	.
8C\	.	.	.	.	.
8C\	.	.	.	4r	.
8A\J	.	.	.	.	.
=86	=86	=86	=86	=86	=86
4E\	2r	2r	2r	8eee\L	#
.	.	.	.	8ee\	.
4E\	.	.	.	8ddd\	7
.	.	.	.	8ee\J	.
=87	=87	=87	=87	=87	=87
4E\	2r	2r	2r	8ccc\L	6
.	.	.	.	8ee\	.
4E\	.	.	.	8bb\	5 #
.	.	.	.	8ee\J	.
=88	=88	=88	=88	=88	=88
4E\	2r	2r	2r	8eee\L	8
.	.	.	.	8ee\	.
4E\	.	.	.	8ddd\	7
.	.	.	.	8ee\J	.
=89	=89	=89	=89	=89	=89
4E\	2r	2r	2r	8ccc\L	6
.	.	.	.	8ee\	.
4E\	.	.	.	8bb\	5 #
.	.	.	.	8ee\J	.
=90	=90	=90	=90	=90	=90
4E\	2r	2r	2r	16dd\LL	7 #
.	.	.	.	16ee\	.
.	.	.	.	16ff\	.
.	.	.	.	16dd\JJ	.
4E\	.	.	.	16b\LL	7 #
.	.	.	.	16cc\	.
.	.	.	.	16dd\	.
.	.	.	.	16b\JJ	.
=91	=91	=91	=91	=91	=91
4E\	2r	2r	2r	16g#/LL	7 #
.	.	.	.	16a/	.
.	.	.	.	16b/	.
.	.	.	.	16g#/JJ	.
4E\	.	.	.	16d/LL	7 #
.	.	.	.	16e/	.
.	.	.	.	16f/	.
.	.	.	.	16d/JJ	.
=92	=92	=92	=92	=92	=92
4AA/	2r	2r	2r	(16c/LL	.
.	.	.	.	16e/J	.
.	.	.	.	8a/J	.
4AA/	.	.	.	16a/LL)	.
.	.	.	.	16cc/	.
.	.	.	.	16b/	.
.	.	.	.	16a/JJ	.
=93	=93	=93	=93	=93	=93
4AA/	2r	2r	2r	(16c/LL	.
.	.	.	.	16e/J	.
.	.	.	.	8a/J	.
4AA/	.	.	.	16a/LL)	.
.	.	.	.	16cc/	.
.	.	.	.	16b/	.
.	.	.	.	16a/JJ	.
=94	=94	=94	=94	=94	=94
4AA/	2r	2r	2r	8aa\L	.
.	.	.	.	8a\J	.
4E\	.	.	.	4bt\	#
=95	=95	=95	=95	=95	=95
4AA/	2r	4r	4r	4a/	.
4r	.	8r	8r	8r	.
.	.	8a/	8a/	8a/	.
=96	=96	=96	=96	=96	=96
4r	4r	8e/L	8e/L	8e/L	.
.	.	8e/	8e/	8e/	.
8r	8r	8e/	8e/	8e/	.
8A\	8e\	8cc/J	8a/J	8a/J	.
=97	=97	=97	=97	=97	=97
8E\L	8e\L	(4cc\	(4a/	(4a/	6 4
8E\	8e\	.	.	.	.
8E\	8e\	8b\L)	8g#/L)	8g#/L)	5 #
8A\J	8e\J	8cc\J	8a/J	8a/J	.
=98	=98	=98	=98	=98	=98
4.E\	4.e\	8e/L	8e/L	8e/L	#
.	.	8e/	8e/	8e/	.
.	.	8e/	8e/	8e/	.
*	*strophe	*	*	*	*
*	*^	*	*	*	*
*	*S/S	*S/A	*	*	*	*
8e\	8g#\	8g\	8b/J	8dd/J	8dd/J	7
*	*S/fin	*S/fin	*	*	*	*
*	*v	*v	*	*	*	*
*	*S-	*	*	*	*
=99	=99	=99	=99	=99	=99
8E\L	8e\L	(4b\	(4dd\	(4dd\	7 5 #
8E\	8e\	.	.	.	.
8E\	8e\	8a\L)	8cc\L)	8cc\L)	6 4
8A\J	8e\J	8cc\J	8a\J	8a\J	.
=100	=100	=100	=100	=100	=100
4.E\	4.e\	8e/L	8e/L	8e/L	#
.	.	8e/	8e/	8e/	.
.	.	8e/	8e/	8e/	.
8G#\	8b\	8ff\J	8dd/J	8dd/J	.
=101	=101	=101	=101	=101	=101
8AA/L	8a\L	(4ff\	(4dd\	(4dd\	6 4
8AA/	8a\	.	.	.	.
8AA/	8a\	8ee\L)	8cc#\L)	8cc#\L)	5 #
8A/J	8a\J	8cc#\J	8ee\J	8ee\J	.
=102	=102	=102	=102	=102	=102
4.AA/	8c#\L	8a\L	8a\L	8a\L	#
.	8c#\	8a\	8a\	8a\	.
.	8c#\	8a\	8a\	8a\	.
8A\	8c#\J	8ee\J	8gg\J	8gg\J	7
=103	=103	=103	=103	=103	=103
8D\L	4.A/	(4ee\	(4gg\	(4gg\	9 7
8D\	.	.	.	.	.
8D\	.	8dd\L)	8ff\L)	8ff\L)	8 6
8d\J	8f\	8aa\J	8aa\J	8aa\J	.
=104	=104	=104	=104	=104	=104
4D\	4f\	8ddd\L	8ddd\L	8ddd\L	.
.	.	8dd\	8dd\	8dd\	.
8r	8r	8ee\	8ee\	8ee\	.
8D\	8f\	8dd\J	8dd\J	8dd\J	.
=105	=105	=105	=105	=105	=105
4G\	4d\	4bb-\	4bb-\	4bb-\	b
4C#/	4e\	8aa\L	8aa\L	8aa\L	6
.	.	8gg\J	8gg\J	8gg\J	.
=106	=106	=106	=106	=106	=106
8D\L	8A\L	8ff\L	8ff\L	8ff\L	.
8F\	8a\	16ee\L	16ee\L	16ee\L	.
.	.	16dd\JJ	16dd\JJ	16dd\JJ	.
8G\	8b-\	8ee\L	8ee\L	8ee\L	6 b
8A\J	8e\J	8cc#\J	8cc#\J	8cc#\J	#
=107	=107	=107	=107	=107	=107
8D\L	4f\	4dd\	4dd\	4dd\	.
8E\	.	.	.	.	.
8F\	4r	4r	4r	8r	.
8C#\J	.	.	.	8aa\	6
=108	=108	=108	=108	=108	=108
4D\	2r	2r	2r	(16aa\LL	.
.	.	.	.	16gg\)	.
.	.	.	.	(16ff\	.
.	.	.	.	16ee\JJ)	.
4A\	.	.	.	(16ff\LL	.
.	.	.	.	16ee\)	.
.	.	.	.	(16dd\	.
.	.	.	.	16cc\JJ)	.
=109	=109	=109	=109	=109	=109
8G\L	2r	2r	2r	8b\L	.
8A\	.	.	.	8G/	.
8B\	.	.	.	8G/	.
8A\J	.	.	.	8ff\J	.
=110	=110	=110	=110	=110	=110
8G\L	2r	2r	2r	(16ff\LL	7
.	.	.	.	16ee\)	.
8A\	.	.	.	(16dd\	.
.	.	.	.	16cc\JJ)	.
8B\	.	.	.	8b\L	.
8G\J	.	.	.	8ff\J	.
=111	=111	=111	=111	=111	=111
8c\L	2r	2r	2r	4ffT\	5 4
8B\	.	.	.	.	.
8c\	.	.	.	8ee\L	3
8G\J	.	.	.	8dd\J	.
=112	=112	=112	=112	=112	=112
4GG/	2r	2r	2r	8gg\L	.
.	.	.	.	8G/	.
4GG/	.	.	.	8ff\	7
.	.	.	.	8G/J	.
=113	=113	=113	=113	=113	=113
4GG/	2r	2r	2r	8ee\L	6
.	.	.	.	8G/	.
4GG/	.	.	.	8dd\	5
.	.	.	.	8G/J	.
=114	=114	=114	=114	=114	=114
4GG/	2r	2r	2r	8gg\L	8
.	.	.	.	8G/	.
4GG/	.	.	.	8ff\	7
.	.	.	.	8G/J	.
=115	=115	=115	=115	=115	=115
4GG/	2r	2r	2r	8ee\L	6
.	.	.	.	8G/	.
4GG/	.	.	.	8dd\	5
.	.	.	.	8G/J	.
=116	=116	=116	=116	=116	=116
4E\	2r	2r	2r	16gg\LL	6
.	.	.	.	16aa\	.
.	.	.	.	16gg\	.
.	.	.	.	16ff\JJ	.
4r	.	.	.	16ee\LL	.
.	.	.	.	16dd\	.
.	.	.	.	16cc\	.
.	.	.	.	16b\JJ	.
=117	=117	=117	=117	=117	=117
8F\L	2r	2r	2r	16a/LL	.
.	.	.	.	16g/	.
8G\	.	.	.	16f/	.
.	.	.	.	16e/JJ	.
8A\	.	.	.	8f/	.
8G\J	.	.	.	8r	.
=118	=118	=118	=118	=118	=118
4F\	2r	2r	2r	16aa\LL	6
.	.	.	.	16bb\	.
.	.	.	.	16aa\	.
.	.	.	.	16gg\JJ	.
4r	.	.	.	16ff\LL	.
.	.	.	.	16ee\	.
.	.	.	.	16dd\	.
.	.	.	.	16cc\JJ	.
=119	=119	=119	=119	=119	=119
8G\L	2r	2r	2r	16b/LL	.
.	.	.	.	16a/	.
8A\	.	.	.	16g/	.
.	.	.	.	16f#/JJ	.
8B\	.	.	.	8g/	.
8A\J	.	.	.	8r	.
=120	=120	=120	=120	=120	=120
4G\	2r	2r	2r	16bb\LL	6
.	.	.	.	16ccc\	.
.	.	.	.	16bb\	.
.	.	.	.	16aa\JJ	.
4r	.	.	.	16gg\LL	.
.	.	.	.	16ff\	.
.	.	.	.	16ee\	.
.	.	.	.	16dd\JJ	.
=121	=121	=121	=121	=121	=121
8A\L	2r	2r	2r	16cc/LL	.
.	.	.	.	16b/	.
8B\	.	.	.	16a/	.
.	.	.	.	16g#/JJ	.
8c\	.	.	.	8a/	.
8B\J	.	.	.	8r	.
=122	=122	=122	=122	=122	=122
4A\	2r	2r	2r	16ccc\LL	6
.	.	.	.	16ddd\	.
.	.	.	.	16ccc\	.
.	.	.	.	16bb\JJ	.
4r	.	.	.	16aa\LL	.
.	.	.	.	16gg\	.
.	.	.	.	16ff\	.
.	.	.	.	16ee\JJ	.
=123	=123	=123	=123	=123	=123
8B\L	2r	2r	2r	16dd\LL	.
.	.	.	.	16cc\	.
8c\	.	.	.	16b\	.
.	.	.	.	16a\JJ	.
8d\	.	.	.	8b\	.
8c\J	.	.	.	8r	.
=124	=124	=124	=124	=124	=124
4B\	2r	2r	2r	16ddd\LL	6
.	.	.	.	16eee\	.
.	.	.	.	16ddd\	.
.	.	.	.	16ccc\JJ	.
4r	.	.	.	16bb\LL	.
.	.	.	.	16aa\	.
.	.	.	.	16gg\	.
.	.	.	.	16ff\JJ	.
=125	=125	=125	=125	=125	=125
8c\L	2r	2r	2r	8ee\	.
8E\	.	.	.	4cccT\	.
8C\	.	.	.	.	.
8c\J	.	.	.	8ee\	.
=126	=126	=126	=126	=126	=126
8B\L	2r	2r	2r	8dd\	6
8D\	.	.	.	4bbt\	.
8BB\	.	.	.	.	.
8B\J	.	.	.	8dd\	.
=127	=127	=127	=127	=127	=127
8A\L	2r	2r	2r	8cc\	6
8C\	.	.	.	4aaT\	.
8AA\	.	.	.	.	.
8A\J	.	.	.	8cc\	.
=128	=128	=128	=128	=128	=128
8G/L	2r	2r	2r	8b\	.
8BB/	.	.	.	4ggT\	.
8GG/	.	.	.	.	.
8G/J	.	.	.	8b\	.
=129	=129	=129	=129	=129	=129
8F/L	2r	2r	2r	8a/	.
8AA/	.	.	.	4ffT\	.
8FF/	.	.	.	.	.
8F/J	.	.	.	8a/	.
=130	=130	=130	=130	=130	=130
8G\L	2r	2r	2r	(16g/LL	.
.	.	.	.	16G/)	.
8G\	.	.	.	(16g/	.
.	.	.	.	16G/JJ)	.
8G\	.	.	.	(16f/LL	7
.	.	.	.	16G/)	.
8G\J	.	.	.	(16f/	.
.	.	.	.	16G/JJ)	.
=131	=131	=131	=131	=131	=131
8G\L	2r	2r	2r	(16e/LL	6
.	.	.	.	16G/)	.
8G\	.	.	.	(16e/	.
.	.	.	.	16G/JJ)	.
8G\	.	.	.	(16d/LL	5
.	.	.	.	16G/)	.
8G\J	.	.	.	(16d/	.
.	.	.	.	16G/JJ)	.
=132	=132	=132	=132	=132	=132
8G\L	2r	2r	2r	(16g/LL	8
.	.	.	.	16G/)	.
8G\	.	.	.	(16g/	.
.	.	.	.	16G/JJ)	.
8G\	.	.	.	(16f/LL	7
.	.	.	.	16G/)	.
8G\J	.	.	.	(16f/	.
.	.	.	.	16G/JJ)	.
=133	=133	=133	=133	=133	=133
8G\L	2r	2r	2r	(16e/LL	6
.	.	.	.	16G/)	.
8G\	.	.	.	(16e/	.
.	.	.	.	16G/JJ)	.
8G\	.	.	.	(16d/LL	5
.	.	.	.	16G/)	.
8G\J	.	.	.	(16d/	.
.	.	.	.	16G/JJ)	.
=134	=134	=134	=134	=134	=134
8G\L	2r	2r	2r	(16gg\LL	8
.	.	.	.	16g\)	.
8G\	.	.	.	(16gg\	.
.	.	.	.	16g\JJ)	.
8G\	.	.	.	(16ff\LL	7
.	.	.	.	16g\)	.
8G\J	.	.	.	(16ff\	.
.	.	.	.	16g\JJ)	.
=135	=135	=135	=135	=135	=135
8G\L	2r	2r	2r	(16ee\LL	6
.	.	.	.	16g\)	.
8G\	.	.	.	(16ee\	.
.	.	.	.	16g\JJ)	.
8G\	.	.	.	(16dd\LL	5
.	.	.	.	16g\)	.
8G\J	.	.	.	(16dd\	.
.	.	.	.	16g\JJ)	.
=136	=136	=136	=136	=136	=136
8G\L	2r	2r	2r	(16gg\LL	8
.	.	.	.	16g\)	.
8G\	.	.	.	(16gg\	.
.	.	.	.	16g\JJ)	.
8G\	.	.	.	(16ff\LL	7
.	.	.	.	16g\)	.
8G\J	.	.	.	(16ff\	.
.	.	.	.	16g\JJ)	.
=137	=137	=137	=137	=137	=137
8G\L	2r	2r	2r	(16ee\LL	6
.	.	.	.	16g\)	.
8G\	.	.	.	(16ee\	.
.	.	.	.	16g\JJ)	.
8G\	.	.	.	(16dd\LL	5
.	.	.	.	16g\)	.
8G\J	.	.	.	(16dd\	.
.	.	.	.	16g\JJ)	.
=138	=138	=138	=138	=138	=138
8A\L	2r	2r	2r	4.ccc\	.
8G\	.	.	.	.	.
8A\	.	.	.	.	.
8B\J	.	.	.	16bb\LL	.
.	.	.	.	16aa\JJ	.
=139	=139	=139	=139	=139	=139
8c\L	2r	2r	2r	4.gg\	.
8d\	.	.	.	.	.
8e\	.	.	.	.	.
8c\J	.	.	.	16ff\LL	.
.	.	.	.	16ee\JJ	.
=140	=140	=140	=140	=140	=140
8B\L	2r	2r	2r	4.dd\	.
8A\	.	.	.	.	.
8B\	.	.	.	.	.
8G\J	.	.	.	16ee\LL	.
.	.	.	.	16ff\JJ	.
=141	=141	=141	=141	=141	=141
8A\L	2r	2r	2r	4.ccc\	.
8G\	.	.	.	.	.
8A\	.	.	.	.	.
8B\J	.	.	.	16bb\LL	.
.	.	.	.	16aa\JJ	.
=142	=142	=142	=142	=142	=142
8c\L	2r	2r	2r	4.gg\	.
8d\	.	.	.	.	.
8e\	.	.	.	.	.
8c\J	.	.	.	16ff\LL	.
.	.	.	.	16ee\JJ	.
=143	=143	=143	=143	=143	=143
8B\L	2r	2r	2r	4.dd\	.
8A\	.	.	.	.	.
8B\	.	.	.	.	.
8G\J	.	.	.	16ee\LL	.
.	.	.	.	16ff\JJ	.
=144	=144	=144	=144	=144	=144
8c\L	2r	2r	2r	8ee\L	.
8E\	.	.	.	8ccc\	6
8F\	.	.	.	8dd\	6
8G\J	.	.	.	8bb\J	.
=145	=145	=145	=145	=145	=145
4C/	2r	4r	4r	4ccc\	.
4r	.	8r	8r	8r	.
.	.	8gg\	8gg\	8gg\	.
=146	=146	=146	=146	=146	=146
4r	4r	8cc\L	8cc\L	8cc\L	.
.	.	8cc\	8cc\	8cc\	.
8r	8r	8cc\	8cc\	8cc\	.
8C/	8e\	8gg\J	8bb-\J	8bb-\J	b7
=147	=147	=147	=147	=147	=147
8FF/L	8c\L	(4gg\	(4bb-\	(4bb-\	9 b4
8FF/	8c\	.	.	.	.
8FF/	8c\	8ff\L)	8aa\L)	8aa\L)	8 3
8F/J	8a\J	8aa\J	8aa\J	8aa\J	.
=148	=148	=148	=148	=148	=148
4FF#/	4a\	8dd\L	8dd\L	8dd\L	6
.	.	8dd\	8dd\	8dd\	.
8r	8r	8dd\	8dd\	8dd\	.
8F#\	8a\	8aa\J	8ccc\J	8ccc\J	.
=149	=149	=149	=149	=149	=149
8GG/L	8d\L	(4aa\	(4ccc\	(4ccc\	9 4
8GG/	8d\	.	.	.	.
8GG/	8d\	8gg\L)	8bb\L)	8bb\L)	8 3
8c\J	8cc\J	8ee\J	8gg\J	8gg\J	.
=150	=150	=150	=150	=150	=150
8F\L	8cc\L	8ff\L	8aa\L	8aa\L	.
8C\	8cc\	8ee\	8gg\	8gg\	.
8F\	8cc\	8ff\	8aa\	8aa\	.
8C\J	8cc\J	8ee\J	8gg\J	8gg\J	.
=151	=151	=151	=151	=151	=151
4F\	4a\	8dd\L	8ff\L	8ff\L	.
.	.	8cc\	8ee\	8ee\	.
4F#\	4a\	8b\	8dd\	8dd\	6
.	.	8a\J	8cc\J	8cc\J	.
=152	=152	=152	=152	=152	=152
8G/L	8d/L	4.g/	4ccT\	4ccT\	.
8GG/J	8B/J	.	.	.	.
4GG/	4B/	.	8b\L	8b\L	.
.	.	8cc\	8cc\J	8cc\J	.
=153	=153	=153	=153	=153	=153
4r	4r	8G/L	8G/L	8G/L	.
.	.	8G/	8G/	8G/	.
8r	8r	8G/	8G/	8G/	.
8c\	8g\	8cc\J	8ee\J	8ee\J	.
=154	=154	=154	=154	=154	=154
8GG/L	8G/L	(4cc\	(4ee\	(4ee\	6 4
8GG/	8G/	.	.	.	.
8GG/	8G/	8b\L)	8dd\L)	8dd\L)	5 3
8c\J	8g/J	8cc\J	8cc\J	8cc\J	.
=155	=155	=155	=155	=155	=155
4GG/	4G/	8G/L	8G/L	8G/L	.
.	.	8G/	8G/	8G/	.
8r	8r	8G/	8G/	8G/	.
8G\	8b\	8dd\J	8ff\J	8ff\J	7
=156	=156	=156	=156	=156	=156
8GG/L	8G/L	(4dd\	(4ff\	(4ff\	7 5
8GG/	8G/	.	.	.	.
8GG/	8G/	8cc\L)	8ee\L)	8ee\L)	6 4
8c\J	8g/J	8cc\J	8dd\J	8dd\J	.
=157	=157	=157	=157	=157	=157
4GG/	4G/	8G/L	8G/L	8G/L	.
.	.	8G/	8G/	8G/	.
8r	8r	8G/	8G/	8G/	.
8c\	8g\	8ee\J	8gg\J	8gg\J	.
=158	=158	=158	=158	=158	=158
8GG/L	8G/L	(4ee\	(4gg\	(4gg\	8 6
8GG/	8G/	.	.	.	.
8GG/	8G/	8dd\L)	8ff\L)	8ff\L)	7 5
8c\J	8g/J	8cc\J	8ee\J	8ee\J	.
=159	=159	=159	=159	=159	=159
4E\	4g\	8gg\L	8ccc\L	8ccc\L	6
.	.	8ee\	8cc\	8cc\	.
8r	8r	8ff\	8dd\	8dd\	.
8E\	8g\	8ee\J	8cc\J	8cc\J	.
=160	=160	=160	=160	=160	=160
4F\	4c\	4aa\	4aa\	4aa\	.
4BB/	4d\	8gg\L	8gg\L	8gg\L	6
.	.	8ff\J	8ff\J	8ff\J	.
=161	=161	=161	=161	=161	=161
8C\L	8G\L	8ee\L	8ee\L	8ee\L	.
8E\	8g\	16dd\L	16dd\L	16dd\L	.
.	.	16cc\JJ	16cc\JJ	16cc\JJ	.
8F\	8a\	8dd\L	8dd\L	8dd\L	.
8G\J	8d\J	8b\J	8b\J	8b\J	.
=162	=162	=162	=162	=162	=162
8C\L	8e\L	4cc\	4cc\	4cc\	.
8C\	8e\	.	.	.	.
8C\	8e\	8r	8r	8r	.
8c\J	8e\J	8ee\	8gg\	8gg\	.
=163	=163	=163	=163	=163	=163
4E\	4g\	8gg\L	8ccc\L	8ccc\L	6
.	.	8ee\	8cc\	8cc\	.
8r	8r	8ff\	8dd\	8dd\	.
8E\	8g\	8ee\J	8cc\J	8cc\J	.
=164	=164	=164	=164	=164	=164
4F\	4c\	4aa\	4aa\	4aa\	.
4BB/	4d\	8gg\L	8gg\L	8gg\L	6
.	.	8ff\J	8ff\J	8ff\J	.
=165	=165	=165	=165	=165	=165
8C\L	8G\L	8ee\L	8ee\L	8ee\L	.
8E\	8g\	16dd\L	16dd\L	16dd\L	6
.	.	16cc\JJ	16cc\JJ	16cc\JJ	.
8F\	8a\	8dd\L	8dd\L	8dd\L	6
8G\J	8d\J	8b\J	8b\J	8b\J	.
=166	=166	=166	=166	=166	=166
2C/	2e\	2cc\	2cc\	2cc\	.
==|!	==|!	==|!	==|!	==|!	==|!
*-	*-	*-	*-	*-	*-
!!!CDT: 1678/3/4/-1741/7/28
!!!OCY: Italia
!!!ODE: Count Wenzeslaus von Morzin of Bohemia; Count Wenceslas of Morzin
!!!ODT: 1725///
!!!OPC: Venezia; Venice
!!!AGN: concerto
!!!AST: baroque
!!!AMT: simple duple
!!!PPR: Michel-Charles Le Ce`ne
!!!PC#: Le Cene No. 520
!!!PDT: 1725///
!!!PPP: Amsterdam
!!!SCT: RV 180
!!!SMA1: The cooperation of the following libraries is gratefully acknowledged:
!!!SMA2: Saechsische Landesbibliothek, Dresden; Biblioteca Nazionale
!!!SMA3: Universitaria, Turin; Henry Watson Music Library, Manchester.
!!!YOR: New York: Dover Publications, Inc. 1995
!!!AIN: cello cemba viola violn
!!!EEV: 1.0
!!!RDT: 1994/4/21/
!!!YER: 1996/10/31/
!!!YEP: Center for Computer Assisted Research in the Humanities
!!!YEN: United States of America
!!!EFL: 3/3
!!!ENC: Edmund Correia, Jr.
!!!EED: Eleanor Selfridge-Field
